images/VK.svg

<svg width="43" height="43" viewBox="0 0 43 43" fill="none" xmlns="http://www.w3.org/2000/svg">
<ellipse cx="21.5" cy="21.5" rx="21.4888" ry="21.5" fill="white"/>
<path d="M30.8939 25.9342C30.8697 25.8839 30.8471 25.8422 30.8262 25.8087C30.4792 25.2063 29.8161 24.4668 28.8372 23.5901L28.8166 23.57L28.8062 23.5602L28.7957 23.5501H28.7852C28.341 23.1419 28.0597 22.8674 27.9419 22.7268C27.7263 22.4591 27.678 22.1882 27.7959 21.9136C27.8791 21.7062 28.1917 21.2681 28.733 20.5988C29.0178 20.244 29.2433 19.9598 29.4098 19.7456C30.6109 18.2063 31.1316 17.2227 30.9719 16.7943L30.9098 16.6942C30.8681 16.634 30.7606 16.5788 30.5872 16.5286C30.4134 16.4784 30.1914 16.4701 29.9206 16.5035L26.9216 16.5235C26.8731 16.5069 26.8037 16.5085 26.7133 16.5286C26.623 16.5487 26.5779 16.5588 26.5779 16.5588L26.5257 16.5839L26.4843 16.6141C26.4495 16.6341 26.4114 16.6692 26.3697 16.7194C26.3282 16.7694 26.2935 16.8282 26.2658 16.8951C25.9393 17.7048 25.5681 18.4577 25.1515 19.1536C24.8946 19.5686 24.6587 19.9282 24.4432 20.2328C24.2281 20.5372 24.0476 20.7615 23.9019 20.9052C23.756 21.0491 23.6244 21.1644 23.5061 21.2515C23.388 21.3386 23.2979 21.3754 23.2355 21.362C23.173 21.3485 23.1141 21.3351 23.0583 21.3218C22.9612 21.2615 22.883 21.1796 22.8241 21.0758C22.765 20.9721 22.7252 20.8416 22.7043 20.6843C22.6836 20.5269 22.6714 20.3916 22.6679 20.2778C22.6646 20.1641 22.6661 20.0033 22.6732 19.7959C22.6804 19.5883 22.6836 19.4479 22.6836 19.3743C22.6836 19.1199 22.6888 18.8439 22.6991 18.5461C22.7096 18.2483 22.7181 18.0124 22.7252 17.8385C22.7323 17.6645 22.7356 17.4804 22.7356 17.2864C22.7356 17.0923 22.7233 16.9401 22.6991 16.8296C22.6752 16.7193 22.6384 16.6122 22.59 16.5084C22.5413 16.4046 22.4701 16.3244 22.3766 16.2674C22.2829 16.2106 22.1664 16.1654 22.0277 16.1319C21.6598 16.0516 21.1912 16.0082 20.6218 16.0014C19.3307 15.9881 18.501 16.0684 18.1331 16.2424C17.9873 16.316 17.8554 16.4164 17.7374 16.5435C17.6125 16.6908 17.595 16.7711 17.6853 16.7844C18.1018 16.8445 18.3968 16.9884 18.5703 17.2159L18.6329 17.3365C18.6815 17.4235 18.7301 17.5775 18.7787 17.7983C18.8273 18.0191 18.8586 18.2633 18.8724 18.5309C18.907 19.0195 18.907 19.4377 18.8724 19.7857C18.8376 20.1338 18.8048 20.4047 18.7735 20.5988C18.7422 20.7929 18.6953 20.9502 18.6329 21.0706C18.5703 21.191 18.5287 21.2646 18.5079 21.2914C18.487 21.3181 18.4697 21.3349 18.4559 21.3415C18.3656 21.3749 18.2718 21.3919 18.1747 21.3919C18.0774 21.3919 17.9595 21.345 17.8206 21.2512C17.6819 21.1575 17.5378 21.0287 17.3885 20.8647C17.2393 20.7007 17.0709 20.4715 16.8834 20.1771C16.696 19.8827 16.5016 19.5347 16.3003 19.1332L16.1338 18.842C16.0296 18.6547 15.8874 18.3819 15.7069 18.024C15.5263 17.6659 15.3666 17.3195 15.2278 16.9849C15.1724 16.8443 15.089 16.7373 14.978 16.6637L14.9259 16.6335C14.8912 16.6068 14.8356 16.5784 14.7593 16.5482C14.6829 16.518 14.6031 16.4963 14.5198 16.483L11.6666 16.503C11.375 16.503 11.1772 16.5666 11.073 16.6938L11.0313 16.754C11.0105 16.7875 11 16.841 11 16.9147C11 16.9883 11.0208 17.0786 11.0625 17.1856C11.479 18.1293 11.932 19.0394 12.4214 19.916C12.9108 20.7927 13.336 21.4989 13.6969 22.0339C14.0579 22.5694 14.4258 23.0747 14.8007 23.5497C15.1756 24.0249 15.4238 24.3294 15.5452 24.4632C15.6668 24.5972 15.7622 24.6974 15.8317 24.7643L16.092 25.0052C16.2586 25.1658 16.5033 25.3582 16.8261 25.5824C17.149 25.8067 17.5065 26.0274 17.8987 26.2451C18.291 26.4624 18.7474 26.6398 19.2681 26.7769C19.7887 26.9142 20.2955 26.9693 20.7884 26.9427H21.9859C22.2288 26.9225 22.4128 26.8489 22.5379 26.7218L22.5793 26.6715C22.6072 26.6316 22.6333 26.5695 22.6573 26.486C22.6817 26.4024 22.6938 26.3102 22.6938 26.21C22.6867 25.9223 22.7094 25.663 22.7613 25.4321C22.8132 25.2014 22.8724 25.0273 22.9386 24.9102C23.0047 24.7931 23.0793 24.6943 23.1624 24.6142C23.2456 24.5339 23.3049 24.4853 23.3397 24.4686C23.3743 24.4517 23.4019 24.4403 23.4227 24.4334C23.5893 24.3799 23.7854 24.4318 24.0112 24.5892C24.2369 24.7464 24.4485 24.9406 24.6465 25.1714C24.8444 25.4024 25.0821 25.6615 25.3597 25.9493C25.6375 26.2371 25.8804 26.451 26.0886 26.5918L26.2968 26.7122C26.4358 26.7926 26.6163 26.8662 26.8385 26.9331C27.0603 27 27.2546 27.0167 27.4215 26.9833L30.0872 26.9432C30.3508 26.9432 30.556 26.9011 30.7015 26.8176C30.8473 26.734 30.9339 26.6418 30.9619 26.5416C30.9897 26.4412 30.9912 26.3274 30.9672 26.2001C30.9425 26.0732 30.9181 25.9844 30.8939 25.9342Z" fill="black"/>
</svg>

<svg width="43" height="43" fill="none" xmlns="http://www.w3.org/2000/svg"><ellipse cx="21.5" cy="21.5" rx="21.489" ry="21.5" fill="#fff"/><path d="M30.894 25.934a1.327 1.327 0 00-.068-.125c-.347-.603-1.01-1.342-1.989-2.219l-.02-.02-.01-.01-.011-.01h-.01c-.445-.408-.726-.683-.844-.823-.216-.268-.264-.539-.146-.813.083-.208.396-.646.937-1.315.285-.355.51-.64.677-.853 1.2-1.54 1.722-2.523 1.562-2.952l-.062-.1c-.042-.06-.15-.115-.323-.165-.174-.05-.396-.059-.666-.026l-3 .02a.403.403 0 00-.208.006l-.135.03-.052.025-.042.03a.456.456 0 00-.114.105.681.681 0 00-.104.176c-.327.81-.698 1.563-1.114 2.259-.257.415-.493.774-.709 1.079a5.212 5.212 0 01-.541.672 3.73 3.73 0 01-.396.346c-.118.088-.208.124-.27.111a8.543 8.543 0 01-.178-.04.678.678 0 01-.234-.246 1.074 1.074 0 01-.12-.392 4.167 4.167 0 01-.036-.406 8.09 8.09 0 01.005-.482c.007-.208.01-.348.01-.422 0-.254.006-.53.016-.828l.026-.707c.007-.174.01-.359.01-.553a2.24 2.24 0 00-.036-.456 1.521 1.521 0 00-.109-.322.547.547 0 00-.213-.24 1.23 1.23 0 00-.35-.136c-.367-.08-.836-.124-1.405-.13-1.291-.014-2.121.066-2.489.24a1.398 1.398 0 00-.396.302c-.124.147-.142.227-.052.24.417.06.712.204.885.432l.063.12c.049.088.097.242.146.462.048.221.08.465.093.733.035.489.035.907 0 1.255-.034.348-.067.619-.099.813a1.584 1.584 0 01-.14.472c-.063.12-.104.194-.125.22a.177.177 0 01-.052.05.805.805 0 01-.281.05c-.098 0-.216-.046-.354-.14a2.468 2.468 0 01-.433-.386 5.18 5.18 0 01-.505-.688 11.847 11.847 0 01-.583-1.044l-.166-.291c-.104-.187-.247-.46-.427-.818-.18-.358-.34-.704-.48-1.04a.664.664 0 00-.249-.32l-.052-.03a.722.722 0 00-.167-.086 1.137 1.137 0 00-.24-.065l-2.852.02c-.292 0-.49.064-.594.19l-.042.061a.315.315 0 00-.031.16c0 .074.02.165.063.272.416.943.869 1.853 1.358 2.73.49.877.915 1.583 1.276 2.118.36.535.729 1.04 1.104 1.516.375.475.623.78.744.913.122.134.217.234.287.301l.26.241c.167.16.411.353.734.577.323.225.68.445 1.073.663.392.217.848.395 1.37.532.52.137 1.027.192 1.52.166h1.197c.243-.02.427-.094.552-.221l.041-.05a.649.649 0 00.078-.186.984.984 0 00.037-.276 3.195 3.195 0 01.067-.778c.052-.23.111-.405.178-.522a1.284 1.284 0 01.4-.441.697.697 0 01.084-.036c.166-.053.362-.001.588.156.226.157.438.352.636.582.197.231.435.49.713.778.277.288.52.502.729.643l.208.12c.139.08.32.154.541.221.222.067.417.084.584.05l2.665-.04c.264 0 .469-.042.614-.125.146-.084.233-.176.26-.276.029-.1.03-.215.006-.342a1.227 1.227 0 00-.073-.266z" fill="#000"/></svg>
